img/videography-icon.svg

<svg width="47" height="47" viewBox="0 0 47 47" fill="none" xmlns="http://www.w3.org/2000/svg">
<path fill-rule="evenodd" clip-rule="evenodd" d="M23.189 46.5592C35.8348 46.5592 46.0863 36.3077 46.0863 23.6618C46.0863 11.016 35.8348 0.764526 23.189 0.764526C10.5431 0.764526 0.291672 11.016 0.291672 23.6618C0.291672 36.3077 10.5431 46.5592 23.189 46.5592Z" fill="#F04037" fill-opacity="0.1"/>
<path d="M32.3701 25.9848V20.6753C32.3701 16.2507 30.6002 14.4808 26.1756 14.4808H20.8661C16.4415 14.4808 14.6716 16.2507 14.6716 20.6753V25.9848C14.6716 30.4094 16.4415 32.1792 20.8661 32.1792H26.1756C30.6002 32.1792 32.3701 30.4094 32.3701 25.9848Z" stroke="#F04037" stroke-width="1.32738" stroke-linecap="round" stroke-linejoin="round"/>
<path d="M15.1318 19.0028H31.9099" stroke="#F04037" stroke-width="1.32738" stroke-linecap="round" stroke-linejoin="round"/>
<path d="M20.4413 14.5782V18.879" stroke="#F04037" stroke-width="1.32738" stroke-linecap="round" stroke-linejoin="round"/>
<path d="M26.6003 14.5782V18.4807" stroke="#F04037" stroke-width="1.32738" stroke-linecap="round" stroke-linejoin="round"/>
<path d="M21.5298 25.4982V24.4363C21.5298 23.0735 22.4943 22.516 23.6713 23.1974L24.5916 23.7284L25.5119 24.2593C26.6888 24.9407 26.6888 26.0557 25.5119 26.7371L24.5916 27.2681L23.6713 27.799C22.4943 28.4804 21.5298 27.9229 21.5298 26.5601V25.4982V25.4982Z" stroke="#F04037" stroke-width="1.32738" stroke-miterlimit="10" stroke-linecap="round" stroke-linejoin="round"/>
</svg>

<svg xmlns="http://www.w3.org/2000/svg" fill="none" viewBox="0 0 47 47"><path fill="#F04037" fill-opacity=".1" fill-rule="evenodd" d="M23.189 46.56c12.646 0 22.897-10.252 22.897-22.898C46.086 11.016 35.835.765 23.19.765 10.543.765.292 11.016.292 23.662c0 12.646 10.251 22.897 22.897 22.897z" clip-rule="evenodd"/><path stroke="#F04037" stroke-linecap="round" stroke-linejoin="round" stroke-width="1.327" d="M32.37 25.985v-5.31c0-4.424-1.77-6.194-6.194-6.194h-5.31c-4.424 0-6.194 1.77-6.194 6.194v5.31c0 4.424 1.77 6.194 6.194 6.194h5.31c4.424 0 6.194-1.77 6.194-6.194zM15.132 19.003H31.91M20.441 14.578v4.301M26.6 14.578v3.903"/><path stroke="#F04037" stroke-linecap="round" stroke-linejoin="round" stroke-miterlimit="10" stroke-width="1.327" d="M21.53 25.498v-1.062c0-1.363.964-1.92 2.141-1.239l.92.531.92.531c1.178.682 1.178 1.797 0 2.478l-.92.531-.92.531c-1.177.681-2.141.124-2.141-1.239v-1.062 0z"/></svg>
